img/mindmap.svg

<?xml version="1.0" encoding="UTF-8" standalone="no"?>
<svg
   xmlns:dc="http://purl.org/dc/elements/1.1/"
   xmlns:cc="http://creativecommons.org/ns#"
   xmlns:rdf="http://www.w3.org/1999/02/22-rdf-syntax-ns#"
   xmlns:svg="http://www.w3.org/2000/svg"
   xmlns="http://www.w3.org/2000/svg"
   xmlns:sodipodi="http://sodipodi.sourceforge.net/DTD/sodipodi-0.dtd"
   xmlns:inkscape="http://www.inkscape.org/namespaces/inkscape"
   inkscape:export-ydpi="122.88"
   inkscape:export-xdpi="122.88"
   inkscape:export-filename="/home/Tom/Downloads/mindmap.png"
   inkscape:version="1.0beta2 (unknown)"
   sodipodi:docname="mindmap.svg"
   viewBox="0 0 400 400.00001"
   height="400"
   width="400"
   version="1.1"
   id="svg">
  <metadata
     id="metadata93">
    <rdf:RDF>
      <cc:Work
         rdf:about="">
        <dc:format>image/svg+xml</dc:format>
        <dc:type
           rdf:resource="http://purl.org/dc/dcmitype/StillImage" />
        <dc:title></dc:title>
      </cc:Work>
    </rdf:RDF>
  </metadata>
  <defs
     id="defs91" />
  <sodipodi:namedview
     inkscape:current-layer="svgg"
     inkscape:window-maximized="1"
     inkscape:window-y="0"
     inkscape:window-x="0"
     inkscape:cy="200"
     inkscape:cx="200"
     inkscape:zoom="1"
     showgrid="false"
     id="namedview89"
     inkscape:window-height="1026"
     inkscape:window-width="1920"
     inkscape:pageshadow="2"
     inkscape:pageopacity="0"
     guidetolerance="10"
     gridtolerance="10"
     objecttolerance="10"
     borderopacity="1"
     inkscape:document-rotation="0"
     bordercolor="#666666"
     pagecolor="#ffffff" />
  <g
     id="svgg">
    <path
       sodipodi:nodetypes="ccccccccccccccccccccccccsccccccccccscccccccccccccccccc"
       inkscape:connector-curvature="0"
       fill-rule="evenodd"
       fill="#f41d5c"
       stroke="none"
       d="M 188.813,15.925 C 162.23455,17.692567 134.18488,26.492959 111.874,37.512 64.561,61.6 27.712,113.005 18.895,167.223 4.973,252.822 50.101,333.633 130.324,366.76 189.876,391.352 261.327,380.555 312.071,339.297 409.346,260.204 399.71718,108.938 293.11318,42.711 254.32241,17.275165 220.951,13.329 188.813,15.925 m 63.531,81.676 c 22.563,6.539 14.945,40.914 -8.219,37.089 -3.465,-0.573 -3.72481,-0.74124 -3.72481,-0.74124 -6.40507,11.19478 -12.4747,22.42322 -18.98619,33.47024 l 2.861,2.748 c 6.632,6.369 10.291,13.984 11.428,23.783 l 0.255,2.193 c 10.56657,1.06589 19.79167,2.01976 29.204,2.951 l 1.291,-2.536 c 9.85,-19.35 40.87,-8.496 35.441,12.402 -5.011,19.292 -32.82,19.199 -36.964,-0.124 -0.485,-2.262 -0.36085,-2.54553 -0.36085,-2.54553 -4.534,-0.442 -26.76216,-2.55586 -29.46116,-2.84286 0,0 0.19576,0.22239 -0.37027,2.67639 -2.056,8.906 -10.67041,19.23154 -19.82441,23.38154 -3.295,1.494 -3.43156,1.5842 -3.43156,1.5842 1.44413,7.01891 5.10678,21.81853 6.43628,28.42226 0,0 0.038,-0.042 1.26197,-0.042 11.529,0 20.451,12.657 17.197,24.394 -4.714,16.998 -28.913,18.378 -35.722,2.037 -3.512,-8.428 0.057,-19.534 7.546,-23.487 1.427,-0.753 1.63331,-0.77534 1.63331,-0.77534 -2.03449,-9.03811 -4.14045,-19.77821 -6.49531,-28.74066 l -5.399,-0.239 c -12.347,-0.547 -24.48682,-7.15979 -29.94182,-16.90279 -0.755,-1.349 -1.68881,-3.38143 -1.93381,-3.74443 -9.76345,3.23409 -23.27931,7.73569 -34.45937,11.50822 l -0.232,2.96 c -1.924,24.59 -37.752,23.674 -37.752,-0.965 0,-18.576 23.587,-26.147 34.243,-10.991 l 0.828,1.178 c 12.65174,-4.26413 19.84162,-6.6057 35.09784,-11.606 l -0.86144,-2.75199 c -1.32286,-8.923 1.6566,-18.76201 5.8416,-24.89701 0.844,-1.238 1.047,-2.396 0.458,-2.616 -5.50871,-4.86373 -10.95251,-10.18595 -16.172,-14.992 l -2.043,0.891 c -22.01119,8.51749 -36.12491,-19.17148 -17.4825,-33.64621 16.72821,-13.45496 39.09962,8.21873 25.8545,25.01921 l -0.776,1.521 c 5.82594,5.45556 12.03461,11.32237 16.867,15.883 l 2.252,-1.561 c 10.036,-6.959 22.18957,-9.85994 35.27799,-4.65209 l 2.24771,1.22871 c 4.0268,-6.85939 14.60501,-26.88699 18.6753,-33.72062 l -1.316,-1.457 c -12.464,-13.796 1.756,-35.954 19.731,-30.744"
       id="path0" />
  </g>
</svg>

<svg id="svg" version="1.1" xmlns="http://www.w3.org/2000/svg" xmlns:xlink="http://www.w3.org/1999/xlink" width="400" height="392.17731421121255" viewBox="0, 0, 400,392.17731421121255"><g id="svgg"><path id="path0" d="M188.813 15.925 C 179.658 16.665,175.942 17.062,170.363 17.896 C 166.801 18.429,162.826 19.121,161.531 19.433 C 160.236 19.746,157.233 20.463,154.858 21.027 C 145.560 23.236,131.622 27.956,125.025 31.131 C 123.945 31.650,121.560 32.743,119.725 33.558 C 117.890 34.374,116.212 35.170,115.996 35.328 C 115.780 35.485,113.925 36.468,111.874 37.512 C 64.561 61.600,27.712 113.005,18.895 167.223 C 4.973 252.822,50.101 333.633,130.324 366.760 C 189.876 391.352,261.327 380.555,312.071 339.297 C 409.346 260.204,399.636 108.938,293.032 42.711 C 263.226 24.194,220.951 13.329,188.813 15.925 M252.344 97.601 C 274.907 104.140,267.289 138.515,244.125 134.690 C 240.660 134.117,241.229 133.621,236.974 140.922 C 233.876 146.240,228.744 154.982,223.612 163.690 L 221.414 167.419 224.275 170.167 C 230.907 176.536,234.566 184.151,235.703 193.950 L 235.958 196.143 240.746 196.630 C 248.834 197.454,260.326 198.616,262.807 198.861 L 265.162 199.094 266.453 196.558 C 276.303 177.208,307.323 188.062,301.894 208.960 C 296.883 228.252,269.074 228.159,264.930 208.836 C 264.445 206.574,265.244 206.800,253.778 205.683 C 249.244 205.241,243.327 204.646,240.628 204.359 C 234.749 203.736,234.979 203.670,234.413 206.124 C 232.357 215.030,223.702 225.112,214.548 229.262 C 211.253 230.756,211.349 230.141,213.164 238.141 C 214.037 241.992,215.017 246.379,215.340 247.890 C 215.663 249.401,216.172 251.609,216.470 252.797 C 216.768 253.984,217.216 255.972,217.464 257.213 C 217.902 259.400,217.956 259.470,219.180 259.470 C 230.709 259.470,239.631 272.127,236.377 283.864 C 231.663 300.862,207.464 302.242,200.655 285.901 C 197.143 277.473,200.712 266.367,208.201 262.414 C 209.628 261.661,209.680 261.564,209.472 260.016 C 209.275 258.550,204.596 237.677,203.710 234.310 L 203.339 232.898 197.940 232.659 C 185.593 232.112,173.855 225.327,168.400 215.584 C 167.645 214.235,166.826 212.834,166.581 212.471 C 166.175 211.872,165.371 212.072,157.748 214.670 C 153.136 216.241,145.367 218.875,140.484 220.524 L 131.605 223.520 131.373 226.480 C 129.449 251.070,93.621 250.154,93.621 225.515 C 93.621 206.939,117.208 199.368,127.864 214.524 L 128.692 215.702 141.382 211.434 C 148.362 209.086,156.104 206.475,158.587 205.631 L 163.101 204.096 163.120 196.749 C 163.143 187.766,164.585 182.582,168.770 176.447 C 169.614 175.209,169.817 174.051,169.228 173.831 C 169.036 173.759,166.253 171.217,163.046 168.182 C 159.838 165.147,156.278 161.804,155.134 160.751 L 153.056 158.839 151.013 159.730 C 142.698 163.358,134.655 162.142,128.848 156.379 C 116.823 144.447,125.098 123.756,141.931 123.667 C 156.134 123.593,165.727 138.672,159.385 151.103 L 158.609 152.624 161.444 155.281 C 163.003 156.743,166.798 160.316,169.877 163.223 L 175.476 168.507 177.728 166.946 C 187.764 159.987,198.983 158.312,210.708 162.022 C 214.684 163.280,213.371 164.665,221.786 150.343 C 225.529 143.974,229.792 136.747,231.260 134.283 L 233.929 129.802 232.613 128.345 C 220.149 114.549,234.369 92.391,252.344 97.601 " stroke="none" fill="#f41d5c" fill-rule="evenodd"></path></g></svg>
